fs/document_save_24_regular.svg

<svg viewBox="0 0 24 24" fill="none" xmlns="http://www.w3.org/2000/svg" height="1em" width="1em">
  <path d="M18.5 20C18.5 20.275 18.276 20.5 18 20.5H13V21.5C13 21.6712 12.9828 21.8384 12.95 22H18C19.104 22 20 21.104 20 20V9.828C20 9.298 19.789 8.789 19.414 8.414L13.585 2.586C13.57 2.57105 13.5531 2.55808 13.5363 2.5452C13.5238 2.53567 13.5115 2.5262 13.5 2.516C13.429 2.452 13.359 2.389 13.281 2.336C13.2557 2.31894 13.2281 2.30548 13.2005 2.29207C13.1845 2.28426 13.1685 2.27647 13.153 2.268C13.1363 2.25859 13.1197 2.24897 13.103 2.23933C13.0488 2.20797 12.9944 2.17648 12.937 2.152C12.74 2.07 12.528 2.029 12.313 2.014C12.2933 2.01274 12.2738 2.01008 12.2542 2.00741C12.2271 2.00371 12.1999 2 12.172 2H6C4.896 2 4 2.896 4 4V11H5.5V4C5.5 3.725 5.724 3.5 6 3.5H12V8C12 9.104 12.896 10 14 10H18.5V20ZM13.5 4.621L17.378 8.5H14C13.724 8.5 13.5 8.275 13.5 8V4.621ZM5 12H8V14H5V12ZM2.5 12H4V14.5C4 14.7761 4.22386 15 4.5 15H8.5C8.77614 15 9 14.7761 9 14.5V12H9.37868C9.7765 12 10.158 12.158 10.4393 12.4393L11.5607 13.5607C11.842 13.842 12 14.2235 12 14.6213V21.5C12 22.3284 11.3284 23 10.5 23H10V17.5C10 17.2239 9.77614 17 9.5 17H3.5C3.22386 17 3 17.2239 3 17.5V23H2.5C1.67157 23 1 22.3284 1 21.5V13.5C1 12.6716 1.67157 12 2.5 12ZM9 18V23H4V18H9Z" fill="#212121"/>
</svg>

<svg viewBox="0 0 24 24" fill="none" xmlns="http://www.w3.org/2000/svg" height="1em" width="1em">
  <path d="M18.5 20a.5.5 0 0 1-.5.5h-5v1c0 .171-.017.338-.05.5H18a2 2 0 0 0 2-2V9.828a2 2 0 0 0-.586-1.414l-5.829-5.828a.491.491 0 0 0-.049-.04.63.63 0 0 1-.036-.03 2.072 2.072 0 0 0-.219-.18.652.652 0 0 0-.08-.044l-.048-.024-.05-.029c-.054-.031-.109-.063-.166-.087a1.977 1.977 0 0 0-.624-.138.56.56 0 0 1-.059-.007.605.605 0 0 0-.082-.007H6a2 2 0 0 0-2 2v7h1.5V4a.5.5 0 0 1 .5-.5h6V8a2 2 0 0 0 2 2h4.5v10Zm-5-15.379L17.378 8.5H14a.5.5 0 0 1-.5-.5V4.621ZM5 12h3v2H5v-2Zm-2.5 0H4v2.5a.5.5 0 0 0 .5.5h4a.5.5 0 0 0 .5-.5V12h.379a1.5 1.5 0 0 1 1.06.44l1.122 1.12A1.5 1.5 0 0 1 12 14.622V21.5a1.5 1.5 0 0 1-1.5 1.5H10v-5.5a.5.5 0 0 0-.5-.5h-6a.5.5 0 0 0-.5.5V23h-.5A1.5 1.5 0 0 1 1 21.5v-8A1.5 1.5 0 0 1 2.5 12ZM9 18v5H4v-5h5Z" fill="#212121"/>
</svg>
